!!!!SEGMENT: pl-cz--iii-564--001-004_raszek-waclaw--missa-pastoralis-d-et-incarnatus.krn
!!!cenid: 18xx:988
!!!COM: Raszek, Wacław
!!!COM-rismID: pe30020314
!!!CDT: <1848->1848
!!!CNT:
!!!OPR: Missa Pastoralis D
!!!OTL: Et incarnatus
!!!OMV: 004
!!!PDT:
!!!AGN: Sacred; Mass
!!!YEC: Copyright 2022 Narodowy Instytut Fryderyka Chopina (https://polishscores.org)
!!!YEM: License CC-BY-4.0 (https://creativecommons.org/licenses/by/4.0)
!!!SMS-siglum: PL-CZ
!!!SMS-shelfmark: III-564
!!!SMS-shelfwork: 001-004 M
!!!SMS-variant:
!!!SMS-altvar:
!!!NIFC-rismSourceID: 300001047
!!!NIFC-rismChildID: 300001047
!!!NIFC-islandoraID: pl-cz:39183
!!!URL-pdf-islandora: https://repozytorium.nifc.pl/islandora/object/pl-cz%3A39183/datastream/PDF/view
!!!URL-scan: https://polish.musicsources.pl/pl/lokalizacje/galeria/rekopisy/6952/1 @EN{Scan on Polish Music Sources Website} @PL{Skany w portalu Dziedzictwo Muzyki Polskiej w otwartym dostępie}
!!!IIIF:
!!!ONB-nifc: UWAGA: części Mszy: Kyrie, Gloria, Credo, Et incarnatus, Et resurrexit, Sanctus, Benedictus, Agnus Dei, Dona nobis
!!!AIN: 1 alto 1 bass 2 clars 1 clrno 2 cor 2 flt 2 oboe 1 organ 1 soprn 1 tenor 2 violn
!!!OMD:
!!!OMD-mod: Andante
!!!key: G
**kern	**fba	**dynam	**kern	**dynam	**kern	**dynam	**kern	**kern	**kern	**text	**mod-text	**kern	**text	**mod-text	**kern	**kern	**kern	**kern	**kern	**kern	**kern
*group5	*	*	*group4	*	*group4	*	*group3	*group3	*group3	*	*	*group3	*	*	*group2	*group2	*group2	*group1	*group1	*group1	*group1
*part14	*	*	*part13	*	*part12	*	*part11	*part10	*part9	*	*	*part8	*	*	*part7	*part6	*part5	*part4	*part3	*part2	*part1
*staff14	*	*	*staff13	*	*staff12	*	*staff11	*staff10	*staff9	*	*	*staff8	*	*	*staff7	*staff6	*staff5	*staff4	*staff3	*staff2	*staff1
*I"Organo.	*	*	*I"Violino 2do.	*	*I"Violino Primo.	*	*I"Baſso.	*I"[Tenore]	*I"Alto.	*	*	*I"Canto.	*	*	*I"[Clarino]	*I"Cornu 2.do	*I"Cornu 1.mo	*I"Clarinetto vel Oboe 2do	*I"Clarinetto vel Oboe 1mo	*I"Flauto 2.do	*I"Flauto 1.mo
*mI"Organo	*	*	*mI"Violino II	*	*mI"Violino I	*	*mI"Basso	*mI"Tenore	*mI"Alto	*	*	*mI"Soprano	*	*	*mI"Clarino	*mI"Corno II in D	*mI"Corno I in D	*mI"Clarinetto vel Oboe II	*mI"Clarinetto vel Oboe I	*mI"Flauto II	*mI"Flauto I
*I'org	*	*	*I'vl II	*	*I'vl I	*	*I'B	*I'T	*I'A	*	*	*I'S	*	*	*I'clno	*I'cor I in D	*I'cor I in D	*I'cl vel ob II	*I'cl vel ob I	*I'fl II	*I'fl I
*Iorgan	*	*	*Ivioln	*	*Ivioln	*	*Ibass	*Itenor	*Ialto	*	*	*Isoprn	*	*	*Iclrno	*Icor	*Icor	*Iclars|Ioboe	*Iclars|Ioboe	*Iflt	*Iflt
*ICklav	*	*	*ICstr	*	*ICstr	*	*ICvox	*ICvox	*ICvox	*	*	*ICvox	*	*	*ICbras	*ICbras	*ICbras	*ICww	*ICww	*ICww	*ICww
*IGcont	*	*	*	*	*	*	*	*	*	*	*	*	*	*	*	*	*	*	*	*	*
*clefF4	*	*	*clefG2	*	*clefG2	*	*clefF4	*clefC4	*clefC3	*	*	*clefC1	*	*	*clefG2	*clefG2	*clefG2	*clefG2	*clefG2	*clefG2	*clefG2
*	*	*	*	*	*	*	*	*mclefGv2	*mclefG2	*	*	*mclefG2	*	*	*	*	*	*	*	*	*
*	*	*	*	*	*	*	*	*	*	*	*	*	*	*	*	*ITrd-1c-2	*ITrd-1c-2	*	*	*	*
*k[f#]	*	*	*k[f#]	*	*k[f#]	*	*k[f#]	*k[f#]	*k[f#]	*	*	*k[f#]	*	*	*k[f#]	*k[f#]	*k[f#]	*k[f#]	*k[f#]	*k[f#]	*k[f#]
*G:	*	*	*G:	*	*G:	*	*G:	*G:	*G:	*	*	*G:	*	*	*G:	*G:	*G:	*G:	*G:	*G:	*G:
*M3/4	*	*	*M3/4	*	*M3/4	*	*M3/4	*M3/4	*M3/4	*	*	*M3/4	*	*	*M3/4	*M3/4	*M3/4	*M3/4	*M3/4	*M3/4	*M3/4
=1	=1	=1	=1	=1	=1	=1	=1	=1	=1	=1	=1	=1	=1	=1	=1	=1	=1	=1	=1	=1	=1
*2\right	*	*	*2\right	*	*2\right	*	*	*	*2\right	*	*	*2\right	*	*	*	*	*	*	*	*2\right	*2\right
!!LO:TX:a:t= :mod=Solo
!!LO:TX:t=P:problem:all\right
!LO:TX:a:B:t=Ada&colon;:mod=	!	!	!	!	!	!	!	!	!LO:TX:a:B:t=ad&colon;:mod=	!	!	!	!	!	!	!	!	!	!	!LO:TX:a:B:t=Ad&colon;:mod=	!LO:TX:a:B:t=Ad&colon;:mod=
!LO:TX:a:t=Solo.:mod=	!	!LO:DY:a:t=p.	!LO:TX:a:B:t=Ada&colon;:mod=	!LO:MO:null:mod=p	!LO:TX:a:B:t=And&colon;:mod=	!LO:DY:a:t=%s.	!LO:TX:a:t=Et in carnatus Tacet:mod=Tacet	!LO:TX:t=P:problem:zgodnie z RISM:T, clno missing	!LO:TX:a:t=Solo:mod=	!	!	!LO:TX:a:B:t=Ad&colon;:mod=	!	!	!LO:TX:t=P:problem:zgodnie z RISM:T, clno missing	!LO:TX:a:t=Et in carnatus\nTacet.:mod=Tacet	!LO:TX:a:t=Et Incarnatuſ\nTacet.:mod=Tacet	!LO:TX:a:t=Et [incar]natus Tacet.:mod=Tacet	!LO:TX:a:t=Et in Carnat[us Tacet]:mod=Tacet	!LO:TX:a:t=Solo:mod=	!LO:TX:a:t=Solo:mod=
4GG/	.	p	8b/L	.	8dd\L	p	2.ryy	2.ryy	8b\L	Et	Et	8dd\L	Et	Et	2.ryy	2.ryy	2.ryy	2.ryy	2.ryy	8bb\L	8ddd\L
!	!	!	!	!LO:DY:a:t=%s.	!	!	!	!	!	!	!	!	!	!	!	!	!	!	!	!	!
!	!	!	!	!LO:MO:mod=.	!	!	!	!	!	!	!	!	!	!	!	!	!	!	!	!	!
.	.	.	8cc/	pp	8ee\	.	.	.	8cc\J	.	.	8ee\J	.	.	.	.	.	.	.	8ccc\	8eee\
4BB/	.	.	8b/	.	8dd\	.	.	.	8b\L	in-	in-	8dd\L	in-	in-	.	.	.	.	.	8bb\	8ddd\
.	.	.	8g/	.	8b\	.	.	.	8g\J	.	.	8b\J	.	.	.	.	.	.	.	8gg\	8bb\
!	!	!	!	!	!LO:SIC:s=8cc\	!	!	!	!	!	!	!LO:SIC:s=8cc\L	!	!	!	!	!	!	!	!	!LO:SIC:s=8ccc\
4D\	.	.	8a/	.	8ccn\	.	.	.	8a\L	-car-	-car-	8ccn\L	-car-	-car-	.	.	.	.	.	8aa\	8cccn\
.	.	.	8f#/J	.	8a\J	.	.	.	8f#\J	.	.	8a\J	.	.	.	.	.	.	.	8dd\J	8aa\J
=2	=2	=2	=2	=2	=2	=2	=2	=2	=2	=2	=2	=2	=2	=2	=2	=2	=2	=2	=2	=2	=2
4G\	.	.	8B/L	.	8g/L	.	2.ryy	2.ryy	4g\	-na-	-na-	8g\L	-na-	-na-	2.ryy	2.ryy	2.ryy	2.ryy	2.ryy	8b\L	8gg\L
.	.	.	8A/	.	8f#/	.	.	.	.	.	.	8f#\	.	.	.	.	.	.	.	8a\	8ff#\
4GG/	.	.	8B/	.	8g/	.	.	.	8g\L	.	.	8g\	.	.	.	.	.	.	.	8b\	8gg\
.	.	.	8d/	.	8a/	.	.	.	8f#\	.	.	8a\	.	.	.	.	.	.	.	8dd\	8aa\
4r	.	.	8g/	.	8b/	.	.	.	8g\	.	.	8b\	.	.	.	.	.	.	.	8gg\	8bb\
!	!	!	!	!	!	!	!	!	!	!	!	!	!	!	!	!	!	!	!	!	!LO:SIC:s=8ccc\J
.	.	.	8a/J	.	8cc/J	.	.	.	8a\J	.	.	8cc\J	.	.	.	.	.	.	.	8aa\J	8cccn\J
=3	=3	=3	=3	=3	=3	=3	=3	=3	=3	=3	=3	=3	=3	=3	=3	=3	=3	=3	=3	=3	=3
4GG/	.	.	8b/L	.	8dd\L	.	2.ryy	2.ryy	2b\	.	.	2dd\	.	.	2.ryy	2.ryy	2.ryy	2.ryy	2.ryy	2bb\	2ddd\
.	.	.	8a/	.	8cc#X\	.	.	.	.	.	.	.	.	.	.	.	.	.	.	.	.
4G\	.	.	8b/	.	8dd\	.	.	.	.	.	.	.	.	.	.	.	.	.	.	.	.
.	.	.	8g/	.	8b\	.	.	.	.	.	.	.	.	.	.	.	.	.	.	.	.
!	!	!	!	!	!	!	!	!	!	!	!	!	!	!	!	!	!	!	!	!LO:SIC:s=4ccc\	!
4C/	.	.	8cc/	.	8ee\	.	.	.	4cc\	-tus	-tus	8ee\L	-tuſ	-tus	.	.	.	.	.	4cccn\	8eee\L
.	.	.	8e/J	.	8gg\J	.	.	.	.	.	.	8gg\J	.	.	.	.	.	.	.	.	8ggg\J
=4	=4	=4	=4	=4	=4	=4	=4	=4	=4	=4	=4	=4	=4	=4	=4	=4	=4	=4	=4	=4	=4
4GG/	.	.	2b\	.	2dd\	.	2.ryy	2.ryy	2b\	eſt	est	2dd\	eſt	est	2.ryy	2.ryy	2.ryy	2.ryy	2.ryy	2bb\	2ddd\
8G\L	.	.	.	.	.	.	.	.	.	.	.	.	.	.	.	.	.	.	.	.	.
8D\	.	.	.	.	.	.	.	.	.	.	.	.	.	.	.	.	.	.	.	.	.
8BB\	.	.	4r	.	4r	.	.	.	4r	.	.	4r	.	.	.	.	.	.	.	4r	4r
8D\J	.	.	.	.	.	.	.	.	.	.	.	.	.	.	.	.	.	.	.	.	.
=5	=5	=5	=5	=5	=5	=5	=5	=5	=5	=5	=5	=5	=5	=5	=5	=5	=5	=5	=5	=5	=5
4GG/	.	.	8b\L	.	8dd\L	.	2.ryy	2.ryy	8b\L	de	de	8dd\L	de	de	2.ryy	2.ryy	2.ryy	2.ryy	2.ryy	8bb\L	8ddd\L
.	.	.	8cc\	.	8ee\	.	.	.	8cc\J	.	.	8ee\J	.	.	.	.	.	.	.	8ccc\	8eee\
4G\	.	.	8b\	.	8dd\	.	.	.	8b\L	spi-	Spi-	8dd\L	ſpi-	Spi-	.	.	.	.	.	8bb\	8ddd\
.	.	.	8g\J	.	8b\	.	.	.	8g\J	.	.	8b\J	.	.	.	.	.	.	.	8gg\	8bb\
!	!	!	!	!	!LO:SIC:s=8cc\	!	!	!	!	!	!	!LO:SIC:s=8cc\	!	!	!	!	!	!	!	!	!
4r	.	.	8a/L	.	8ccn\	.	.	.	8a\L	-ri-	-ri-	8ccn\	-ri-	-ri-	.	.	.	.	.	8aa\	8ccc\
.	.	.	8d/J	.	8a\J	.	.	.	8f#\J	-tu	-tu	8a\	-tu	-tu	.	.	.	.	.	8dd\J	8aa\J
=6	=6	=6	=6	=6	=6	=6	=6	=6	=6	=6	=6	=6	=6	=6	=6	=6	=6	=6	=6	=6	=6
4GG/	.	.	8B/L	.	4g/	.	2.ryy	2.ryy	2.g\	San-	San-	2g\	San-	San-	2.ryy	2.ryy	2.ryy	2.ryy	2.ryy	4b\	4gg\
.	.	.	8d/	.	.	.	.	.	.	.	.	.	.	.	.	.	.	.	.	.	.
4G\	.	.	8B/	.	8g/L	.	.	.	.	.	.	.	.	.	.	.	.	.	.	8b\L	8gg\L
.	.	.	8d/	.	8f#/	.	.	.	.	.	.	.	.	.	.	.	.	.	.	8a\	8ff#\
4G\	.	.	8B/	.	8g/	.	.	.	.	.	.	8g\L	.	.	.	.	.	.	.	8b\	8gg\
.	.	.	8d/J	.	8b/J	.	.	.	.	.	.	8b\J	.	.	.	.	.	.	.	8dd\J	8bb\J
=7	=7	=7	=7	=7	=7	=7	=7	=7	=7	=7	=7	=7	=7	=7	=7	=7	=7	=7	=7	=7	=7
.	.	.	.	.	8qb/	.	.	.	.	.	.	.	.	.	.	.	.	.	.	.	.
4D\	n7	.	8c/L	.	4a/	.	2.ryy	2.ryy	2f#\	.	.	4a\	.	.	2.ryy	2.ryy	2.ryy	2.ryy	2.ryy	4cc\	4aa\
.	.	.	8d/	.	.	.	.	.	.	.	.	.	.	.	.	.	.	.	.	.	.
4D\	.	.	8c/	.	8a/L	.	.	.	.	.	.	8a\L	.	.	.	.	.	.	.	8cc\L	8aa\L
.	.	.	8d/	.	8g/	.	.	.	.	.	.	8g\	.	.	.	.	.	.	.	8b\	8gg\
4D\	.	.	8c/	.	8a/	.	.	.	4f#\	.	.	8a\	.	.	.	.	.	.	.	8cc\	8aa\
.	.	.	8d/J	.	8b/J	.	.	.	.	.	.	8b\J	.	.	.	.	.	.	.	8dd\J	8bb\J
*	*	*	*	*	*	*	*	*	*custos:g	*	*	*	*	*	*	*	*	*	*	*	*
!	!	!	!	!	!	!	!	!	!LO:LB:g=original	!	!	!	!	!	!	!	!	!	!	!LO:LB:g=original	!
=8	=8	=8	=8	=8	=8	=8	=8	=8	=8	=8	=8	=8	=8	=8	=8	=8	=8	=8	=8	=8	=8
.	.	.	.	.	.	.	.	.	.	.	.	.	.	.	.	.	.	.	.	.	8qaa/
4GG/	.	.	8B/L	.	2g/	.	2.ryy	2.ryy	2g\	-cto	-cto	2g\	-cto	-cto	2.ryy	2.ryy	2.ryy	2.ryy	2.ryy	2b\	2gg\
.	.	.	8d/	.	.	.	.	.	.	.	.	.	.	.	.	.	.	.	.	.	.
8G\L	.	.	8B/	.	.	.	.	.	.	.	.	.	.	.	.	.	.	.	.	.	.
8D\	.	.	8d/J	.	.	.	.	.	.	.	.	.	.	.	.	.	.	.	.	.	.
8BB\	.	.	4B/	.	4r	.	.	.	4r	.	.	4r	.	.	.	.	.	.	.	4r	4r
8GG\J	.	.	.	.	.	.	.	.	.	.	.	.	.	.	.	.	.	.	.	.	.
!	!	!	!	!	!	!	!	!	!	!	!	!LO:LB:g=original	!	!	!	!	!	!	!	!	!
=9	=9	=9	=9	=9	=9	=9	=9	=9	=9	=9	=9	=9	=9	=9	=9	=9	=9	=9	=9	=9	=9
!	!	!	!	!	!	!	!	!	!	!	!	!	!	!	!	!	!	!	!	!LO:N:vis=00	!LO:N:vis=00
4D\	.	.	8A/L	.	4a/	.	2.ryy	2.ryy	2f#\	ex	ex	4a\	ex	ex	2.ryy	2.ryy	2.ryy	2.ryy	2.ryy	0.r	0.r
.	.	.	8f#/	.	.	.	.	.	.	.	.	.	.	.	.	.	.	.	.	.	.
4D\	.	.	8A/	.	4dd\	.	.	.	.	.	.	4.dd\	Ma-	Ma-	.	.	.	.	.	.	.
.	.	.	8f#/	.	.	.	.	.	.	.	.	.	.	.	.	.	.	.	.	.	.
!	!	!	!	!	!LO:LB:g=original	!	!	!	!	!	!	!	!	!	!	!	!	!	!	!	!
4D\	7	.	8A/	.	8dd\L	.	.	.	8f#\L	Ma-	Ma-	.	.	.	.	.	.	.	.	.	.
!	!	!	!	!	!	!	!	!	!	!	!	!LO:SIC:s=8cc\	!	!	!	!	!	!	!	!	!
.	.	.	8f#/J	.	8cc\J	.	.	.	8a\J	.	.	8ccn\	.	.	.	.	.	.	.	.	.
!	!	!	!LO:LB:g=original	!	!	!	!	!	!	!	!	!	!	!	!	!	!	!	!	!	!
=10	=10	=10	=10	=10	=10	=10	=10	=10	=10	=10	=10	=10	=10	=10	=10	=10	=10	=10	=10	=10	=10
4GG/	.	.	4d/	.	8cc\L	.	2.ryy	2.ryy	8a\L	-ri-	-ri-	8cc\L	-ri-	-ri-	2.ryy	2.ryy	2.ryy	2.ryy	2.ryy	.	.
.	.	.	.	.	8b\J	.	.	.	8g\J	.	.	8b\J	.	.	.	.	.	.	.	.	.
4G\	.	.	4d/	.	2b\	.	.	.	2g\	-a	-a,	2b\	-a	-a,	.	.	.	.	.	.	.
4G\	.	.	4d/	.	.	.	.	.	.	.	.	.	.	.	.	.	.	.	.	.	.
=11	=11	=11	=11	=11	=11	=11	=11	=11	=11	=11	=11	=11	=11	=11	=11	=11	=11	=11	=11	=11	=11
*	*	*	*	*	*	*	*	*	*	*ij	*ij	*	*	*	*	*	*	*	*	*	*
4E\	.	.	4g/	.	4gg\	.	2.ryy	2.ryy	4g\	Ma-	Ma-	4gg\	Ma-	Ma-	2.ryy	2.ryy	2.ryy	2.ryy	2.ryy	.	.
4G\	6	.	4b/	.	4.ee\	.	.	.	4.b\	-ri-	-ri-	4.ee\	-ri-	-ri-	.	.	.	.	.	.	.
4G#X\	5	.	4b/	.	.	.	.	.	.	.	.	.	.	.	.	.	.	.	.	.	.
.	.	.	.	.	8dd\	.	.	.	8b\	-a	-a	8dd\	-a	-a	.	.	.	.	.	.	.
*	*	*	*	*	*	*	*	*	*	*Xij	*Xij	*	*	*	*	*	*	*	*	*	*
=12	=12	=12	=12	=12	=12	=12	=12	=12	=12	=12	=12	=12	=12	=12	=12	=12	=12	=12	=12	=12	=12
.	.	.	.	.	8qdd/	.	.	.	.	.	.	.	.	.	.	.	.	.	.	.	.
4A\	#	.	4e/	.	4cc#X\	.	2.ryy	2.ryy	8b\	Vir-	Vir-	8dd\	Vir-	Vir-	2.ryy	2.ryy	2.ryy	2.ryy	2.ryy	.	.
.	.	.	.	.	.	.	.	.	8a\	-gi-	-gi-	8cc#X\	-gi-	-gi-	.	.	.	.	.	.	.
8A'\L	.	.	2e/	.	2cc#\	.	.	.	2a\	-ne	-ne:	2cc#\	-ne	-ne:	.	.	.	.	.	.	.
8Gn'\	.	.	.	.	.	.	.	.	.	.	.	.	.	.	.	.	.	.	.	.	.
8F#'\	.	.	.	.	.	.	.	.	.	.	.	.	.	.	.	.	.	.	.	.	.
8E'\J	.	.	.	.	.	.	.	.	.	.	.	.	.	.	.	.	.	.	.	.	.
*custos:D	*	*	*	*	*	*	*	*	*	*	*	*	*	*	*	*	*	*	*	*	*
!LO:LB:g=original	!	!	!	!	!	!	!	!	!	!	!	!	!	!	!	!	!	!	!	!	!
=13	=13	=13	=13	=13	=13	=13	=13	=13	=13	=13	=13	=13	=13	=13	=13	=13	=13	=13	=13	=13	=13
!	!	!	!	!	!LO:TX:a:t=P:problem=mixed beam	!	!	!	!	!	!	!	!	!	!	!	!	!	!	!	!
4D\	.	.	2.A/	.	8dd\L	.	2.ryy	2.ryy	4f#\	et	Et	4dd\	et	Et	2.ryy	2.ryy	2.ryy	2.ryy	2.ryy	4r	8r
.	.	.	.	.	8d/	.	.	.	.	.	.	.	.	.	.	.	.	.	.	.	8dd\L
4DD/	.	.	.	.	8f#/	.	.	.	4f#\	ho-	ho-	4dd\	ho-	ho-	.	.	.	.	.	4dd\	8ff#\
.	.	.	.	.	8d/	.	.	.	.	.	.	.	.	.	.	.	.	.	.	.	8dd\
4r	.	.	.	.	8g/	.	.	.	4g\	-mo	-mo	4ee\	-mo	-mo	.	.	.	.	.	4ee\	8gg\
.	.	.	.	.	8e/J	.	.	.	.	.	.	.	.	.	.	.	.	.	.	.	8ee\J
=14	=14	=14	=14	=14	=14	=14	=14	=14	=14	=14	=14	=14	=14	=14	=14	=14	=14	=14	=14	=14	=14
4D\	.	.	2A/	.	8a/L	.	2.ryy	2.ryy	8a\L	ho-	fa-	8ff#\L	fa-	fa-	2.ryy	2.ryy	2.ryy	2.ryy	2.ryy	8ff#\L	8aa\L
.	.	.	.	.	8f#/	.	.	.	8f#\	.	.	8dd\	.	.	.	.	.	.	.	8dd\	8ff#\
4F#\	6	.	.	.	8a/	.	.	.	8a\	.	.	8ff#\	.	.	.	.	.	.	.	8ff#\	8aa\
!	!	!	!	!	!	!	!	!	!	!	!	!LO:SIC:s=8dd\J	!	!	!	!	!	!	!	!	!
.	.	.	.	.	8f#/	.	.	.	8f#\J	.	.	8dd\	.	.	.	.	.	.	.	8dd\	8ff#\
!	!	!	!	!	!	!	!	!	!	!	!	!LO:SIC:s=8ee\L	!	!	!	!	!	!	!	!	!
4A\	#	.	4A/	.	8g/	.	.	.	8g\L	-mo	-ctus,	8ee\	-ctuſ	-ctus,	.	.	.	.	.	8ee\	8gg\
.	.	.	.	.	8e/J	.	.	.	8e\J	.	.	8cc#X\J	.	.	.	.	.	.	.	8cc#X\J	8ee\J
=15	=15	=15	=15	=15	=15	=15	=15	=15	=15	=15	=15	=15	=15	=15	=15	=15	=15	=15	=15	=15	=15
4d\	.	.	2.A/	.	8f#/L	.	2.ryy	2.ryy	4f#\	et	et	4dd\	et	et	2.ryy	2.ryy	2.ryy	2.ryy	2.ryy	4dd\	8ff#\L
.	.	.	.	.	8d/	.	.	.	.	.	.	.	.	.	.	.	.	.	.	.	8dd\
4D\	.	.	.	.	8f#/	.	.	.	4f#\	ho-	ho-	4dd\	ho-	ho-	.	.	.	.	.	4dd\	8ff#\
.	.	.	.	.	8d/	.	.	.	.	.	.	.	.	.	.	.	.	.	.	.	8dd\J
!	!	!	!	!	!	!	!	!	!	!	!	!	!	!	!	!	!	!	!	!	!LO:LB:g=original
4r	.	.	.	.	8g/	.	.	.	4g\	-mo	-mo	4ee\	-mo	-mo	.	.	.	.	.	4ee\	8gg\L
.	.	.	.	.	8e/J	.	.	.	.	.	.	.	.	.	.	.	.	.	.	.	8ee\J
=16	=16	=16	=16	=16	=16	=16	=16	=16	=16	=16	=16	=16	=16	=16	=16	=16	=16	=16	=16	=16	=16
4D\	.	.	2A/	.	8a/L	.	2.ryy	2.ryy	8a\L	fa-	fa-	8ff#\L	fa-	fa-	2.ryy	2.ryy	2.ryy	2.ryy	2.ryy	8ff#\L	8aa\L
.	.	.	.	.	8f#/	.	.	.	8f#\	.	.	8dd\	.	.	.	.	.	.	.	8dd\	8ff#\
4F#\	6	.	.	.	8a/	.	.	.	8a\	.	.	8ff#\	.	.	.	.	.	.	.	8ff#\	8aa\
!	!	!	!	!	!	!	!	!	!	!	!	!LO:SIC:s=8dd\J	!	!	!	!	!	!	!	!	!
.	.	.	.	.	8f#/	.	.	.	8f#\J	.	.	8dd\	.	.	.	.	.	.	.	8dd\	8ff#\
!	!	!	!	!	!	!	!	!	!LO:LB:g=original	!	!	!LO:SIC:s=8ee\L	!	!	!	!	!	!	!	!	!
4A\	#	.	4A/	.	8g/	.	.	.	8g\L	-ctus	-ctus,	8ee\	-ctuſ	-ctus,	.	.	.	.	.	8ee\	8gg\
.	.	.	.	.	8e/J	.	.	.	8e\J	.	.	8cc#X\J	.	.	.	.	.	.	.	8cc#X\J	8ee\J
=17	=17	=17	=17	=17	=17	=17	=17	=17	=17	=17	=17	=17	=17	=17	=17	=17	=17	=17	=17	=17	=17
!	!	!	!	!	!	!	!	!	!LO:SIC:s=(4f#\	!	!	!	!	!	!	!	!	!	!	!	!
4d\	.	.	4A/	.	8f#/L	.	2.ryy	2.ryy	4f#\	ho-	ho-	(4dd\	ho-	ho-	2.ryy	2.ryy	2.ryy	2.ryy	2.ryy	4dd\	8ff#\L
.	.	.	.	.	8d/	.	.	.	.	.	.	.	.	.	.	.	.	.	.	.	8dd\
!	!	!	!	!	!	!	!	!	!LO:SIC:s=4g\)	!	!	!	!	!	!	!	!	!	!	!	!
4r	.	.	4A/	.	8g/	.	.	.	4g\	.	.	4ee\)	.	.	.	.	.	.	.	4ee\	8gg\
.	.	.	.	.	8e/	.	.	.	.	.	.	.	.	.	.	.	.	.	.	.	8ee\
4D\	.	.	8f#/L	.	8a/	.	.	.	4a\	-mo	-mo	4ff#\	-mo	-mo	.	.	.	.	.	4ff#\	8aa\
.	.	.	8d/J	.	8f#/J	.	.	.	.	.	.	.	.	.	.	.	.	.	.	.	8ff#\J
=18	=18	=18	=18	=18	=18	=18	=18	=18	=18	=18	=18	=18	=18	=18	=18	=18	=18	=18	=18	=18	=18
4G\	3	.	4d/	.	8b/L	.	2.ryy	2.ryy	8b\L	fa-	fa-	8gg\L	fa-	fa-	2.ryy	2.ryy	2.ryy	2.ryy	2.ryy	8gg\L	8bb\L
.	.	.	.	.	8g/J	.	.	.	8g\J	.	.	8ee\J	.	.	.	.	.	.	.	8ee\J	8gg\J
4A\	4	.	4d/	.	4f#/	.	.	.	4f#\	.	.	4dd\	.	.	.	.	.	.	.	4dd\	4ff#\
4AA/	#	.	4c#X/	.	4eT/	.	.	.	4e\	-ctus	-ctus	4cc#X\	-ctuſ	-ctus	.	.	.	.	.	4cc#X\	4ee\
=19	=19	=19	=19	=19	=19	=19	=19	=19	=19	=19	=19	=19	=19	=19	=19	=19	=19	=19	=19	=19	=19
4D\	.	.	2d/	.	2d/	.	2.ryy	2.ryy	2f#\	est	est.	2dd\	eſt	est.	2.ryy	2.ryy	2.ryy	2.ryy	2.ryy	2dd\	2dd\
8d\L	.	.	.	.	.	.	.	.	.	.	.	.	.	.	.	.	.	.	.	.	.
8A\	.	.	.	.	.	.	.	.	.	.	.	.	.	.	.	.	.	.	.	.	.
8F#\	.	.	4r	.	4r	.	.	.	4r	.	.	4r	.	.	.	.	.	.	.	4r	4r
8D\J	.	.	.	.	.	.	.	.	.	.	.	.	.	.	.	.	.	.	.	.	.
*	*	*	*	*	*custos:dd	*	*	*	*	*	*	*	*	*	*	*	*	*	*	*	*
!	!	!	!	!	!LO:LB:g=original	!	!	!	!	!	!	!LO:LB:g=original	!	!	!	!	!	!	!	!	!
=20	=20	=20	=20	=20	=20	=20	=20	=20	=20	=20	=20	=20	=20	=20	=20	=20	=20	=20	=20	=20	=20
!	!	!	!	!	!	!	!	!	!	!	!	!	!	!	!	!	!	!	!	!LO:N:vis=00	!LO:N:vis=00
4E\	7 #	.	8b/L	.	2dd\	.	2.ryy	2.ryy	2b\	Cru-	Cru-	2dd\	Cru-	Cru-	2.ryy	2.ryy	2.ryy	2.ryy	2.ryy	0.r	0.r
.	.	.	8g#X/	.	.	.	.	.	.	.	.	.	.	.	.	.	.	.	.	.	.
4E\	.	.	8b/	.	.	.	.	.	.	.	.	.	.	.	.	.	.	.	.	.	.
.	.	.	8g#/	.	.	.	.	.	.	.	.	.	.	.	.	.	.	.	.	.	.
4E\	.	.	8e/	.	4b\	.	.	.	4g#X\	-ci-	-ci-	4b\	-ci-	-ci-	.	.	.	.	.	.	.
.	.	.	8g#/J	.	.	.	.	.	.	.	.	.	.	.	.	.	.	.	.	.	.
=21	=21	=21	=21	=21	=21	=21	=21	=21	=21	=21	=21	=21	=21	=21	=21	=21	=21	=21	=21	=21	=21
4AA/	n	.	8b/L	.	8dd\L	.	2.ryy	2.ryy	8b\L	-fi-	-fi-	8dd\L	-fi-	-fi-	2.ryy	2.ryy	2.ryy	2.ryy	2.ryy	.	.
.	.	.	8a/J	.	8cc\J	.	.	.	8a\J	.	.	8cc\J	.	.	.	.	.	.	.	.	.
4A\	.	.	4a/	.	4cc\	.	.	.	4a\	-xus	-xus,	4cc\	-xus	-xus,	.	.	.	.	.	.	.
4AA/	.	.	4r	.	4r	.	.	.	4r	.	.	4r	.	.	.	.	.	.	.	.	.
=22	=22	=22	=22	=22	=22	=22	=22	=22	=22	=22	=22	=22	=22	=22	=22	=22	=22	=22	=22	=22	=22
*	*	*	*	*	*	*	*	*	*	*	*	*	*ij	*ij	*	*	*	*	*	*	*
4D\	n7 3	.	8a/L	.	2cc\	.	2.ryy	2.ryy	2a\	Cru-	cru-	2cc\	Cru-	cru-	2.ryy	2.ryy	2.ryy	2.ryy	2.ryy	.	.
.	.	.	8f#/	.	.	.	.	.	.	.	.	.	.	.	.	.	.	.	.	.	.
4D\	.	.	8a/	.	.	.	.	.	.	.	.	.	.	.	.	.	.	.	.	.	.
.	.	.	8f#/	.	.	.	.	.	.	.	.	.	.	.	.	.	.	.	.	.	.
4D\	.	.	8d/	.	4a/	.	.	.	4f#\	-ci-	-ci-	4a\	-ci-	-ci-	.	.	.	.	.	.	.
.	.	.	8f#/J	.	.	.	.	.	.	.	.	.	.	.	.	.	.	.	.	.	.
=23	=23	=23	=23	=23	=23	=23	=23	=23	=23	=23	=23	=23	=23	=23	=23	=23	=23	=23	=23	=23	=23
4G\	.	.	8a/L	.	8cc\L	.	2.ryy	2.ryy	8a\L	-fi-	-fi-	8cc\L	-fi-	-fi-	2.ryy	2.ryy	2.ryy	2.ryy	2.ryy	.	.
.	.	.	8g/J	.	8b\J	.	.	.	8g\J	.	.	8b\J	.	.	.	.	.	.	.	.	.
4GG/	.	.	4g/	.	4b\	.	.	.	4g\	-xus	-xus	4b\	-xus	-xus	.	.	.	.	.	.	.
*	*	*	*	*	*	*	*	*	*	*	*	*	*Xij	*Xij	*	*	*	*	*	*	*
8BB/L	.	.	4r	.	4r	.	.	.	4r	.	.	4r	.	.	.	.	.	.	.	.	.
8D/J	.	.	.	.	.	.	.	.	.	.	.	.	.	.	.	.	.	.	.	.	.
=24	=24	=24	=24	=24	=24	=24	=24	=24	=24	=24	=24	=24	=24	=24	=24	=24	=24	=24	=24	=24	=24
4G\	.	.	8b/L	.	8dd\L	.	2.ryy	2.ryy	8b\L	e-	e-	8dd\L	e-	e-	2.ryy	2.ryy	2.ryy	2.ryy	2.ryy	8bb\L	8ddd\L
!	!	!	!	!	!	!	!	!	!	!	!	!LO:SIC:s=8ee\	!	!	!	!	!	!	!	!	!
.	.	.	8cc/	.	8ee\	.	.	.	8cc\	.	.	8ee\J	.	.	.	.	.	.	.	8ccc\	8eee\
!	!	!	!	!	!	!	!	!	!	!	!	!LO:SIC:s=8dd\	!	!	!	!	!	!	!	!	!
4GG/	.	.	8b/	.	8dd\	.	.	.	8b\	.	.	8dd\L	.	.	.	.	.	.	.	8bb\	8ddd\
.	.	.	8g/	.	8b\	.	.	.	8g\J	.	.	8b\J	.	.	.	.	.	.	.	8gg\	8bb\
!	!	!	!	!	!	!	!	!	!	!	!	!LO:SIC:s=8cc\L	!	!	!	!	!	!	!	!	!
4D\	n7	.	8a/	.	8cc\	.	.	.	8a\L	-ti-	-ti-	8ccn\L	-ti-	-ti-	.	.	.	.	.	8aa\	8ccc\
.	.	.	8d/J	.	8a\J	.	.	.	8f#\J	.	.	8a\J	.	.	.	.	.	.	.	8ff#\J	8aa\J
!	!	!	!	!	!	!	!	!	!LO:LB:g=original	!	!	!	!	!	!	!	!	!	!	!LO:LB:g=original	!
=25	=25	=25	=25	=25	=25	=25	=25	=25	=25	=25	=25	=25	=25	=25	=25	=25	=25	=25	=25	=25	=25
4G\	.	.	8B/L	.	8g/L	.	2.ryy	2.ryy	4g\	.	.	8g\L	-am	-am	2.ryy	2.ryy	2.ryy	2.ryy	2.ryy	4gg\	8gg\L
.	.	.	8d/	.	8f#/	.	.	.	.	.	.	8f#\	.	.	.	.	.	.	.	.	8ff#\
4GG/	.	.	8B/	.	8g/	.	.	.	8g\L	-am	-am	8g\	.	.	.	.	.	.	.	8gg\L	8gg\
.	.	.	8d/	.	8a/	.	.	.	8f#\J	.	.	8a\J	.	.	.	.	.	.	.	8ff#\	8aa\
4r	.	.	8g/	.	8b/	.	.	.	8g\L	pro	pro	8b\L	pro	pro	.	.	.	.	.	8gg\	8bb\
.	.	.	8a/J	.	8cc/J	.	.	.	8a\J	.	.	8cc\J	.	.	.	.	.	.	.	8aa\J	8ccc\J
!	!	!	!LO:LB:g=original	!	!	!	!	!	!	!	!	!	!	!	!	!	!	!	!	!	!
=26	=26	=26	=26	=26	=26	=26	=26	=26	=26	=26	=26	=26	=26	=26	=26	=26	=26	=26	=26	=26	=26
4GG/	.	.	8b/L	.	8dd\L	.	2.ryy	2.ryy	2b\	no-	no-	2dd\	no-	no-	2.ryy	2.ryy	2.ryy	2.ryy	2.ryy	2bb\	2ddd\
.	.	.	8a/	.	8cc#X\	.	.	.	.	.	.	.	.	.	.	.	.	.	.	.	.
4G\	.	.	8b/	.	8dd\	.	.	.	.	.	.	.	.	.	.	.	.	.	.	.	.
.	.	.	8g/	.	8b\	.	.	.	.	.	.	.	.	.	.	.	.	.	.	.	.
4C/	.	.	8cc/	.	8ee\	.	.	.	4cc\	.	.	8ee\L	.	.	.	.	.	.	.	4ccc\	8eee\L
.	.	.	8e/J	.	8gg\J	.	.	.	.	.	.	8gg\J	.	.	.	.	.	.	.	.	8ggg\J
=27	=27	=27	=27	=27	=27	=27	=27	=27	=27	=27	=27	=27	=27	=27	=27	=27	=27	=27	=27	=27	=27
.	.	.	8qcc/	.	.	.	.	.	.	.	.	.	.	.	.	.	.	.	.	.	.
4GG/	.	.	2b\	.	2dd\	.	2.ryy	2.ryy	2b\	-biſ	-bis:	2dd\	-biſ	-bis:	2.ryy	2.ryy	2.ryy	2.ryy	2.ryy	2bb\	2ddd\
*custos:G	*	*	*	*	*	*	*	*	*	*	*	*	*	*	*	*	*	*	*	*	*
!LO:LB:g=original	!	!	!	!	!	!	!	!	!	!	!	!	!	!	!	!	!	!	!	!	!
8G\L	.	.	.	.	.	.	.	.	.	.	.	.	.	.	.	.	.	.	.	.	.
8D\	.	.	.	.	.	.	.	.	.	.	.	.	.	.	.	.	.	.	.	.	.
8BB\	.	.	4r	.	4r	.	.	.	4r	.	.	4r	.	.	.	.	.	.	.	4r	4r
8D\J	.	.	.	.	.	.	.	.	.	.	.	.	.	.	.	.	.	.	.	.	.
=28	=28	=28	=28	=28	=28	=28	=28	=28	=28	=28	=28	=28	=28	=28	=28	=28	=28	=28	=28	=28	=28
4GG/	.	.	8b\L	.	8dd\L	.	2.ryy	2.ryy	8b\L	Sub	sub	8dd\L	Sub	sub	2.ryy	2.ryy	2.ryy	2.ryy	2.ryy	8bb\L	8ddd\L
.	.	.	8cc\	.	8ee\	.	.	.	8cc\J	.	.	8ee\J	.	.	.	.	.	.	.	8ccc\	8eee\
4G\	.	.	8b\	.	8dd\	.	.	.	8b\L	Pon-	Pon-	8dd\L	Pon-	Pon-	.	.	.	.	.	8bb\	8ddd\
.	.	.	8g\J	.	8b\	.	.	.	8g\J	.	.	8b\J	.	.	.	.	.	.	.	8gg\	8bb\
4r	.	.	8a/L	.	8cc\	.	.	.	8a\L	-ti-	-ti-	8cc\L	-ti-	-ti-	.	.	.	.	.	8aa\	8ccc\
.	.	.	8d/J	.	8a\J	.	.	.	8f#\J	.	.	8a\J	.	.	.	.	.	.	.	8dd\J	8aa\J
=29	=29	=29	=29	=29	=29	=29	=29	=29	=29	=29	=29	=29	=29	=29	=29	=29	=29	=29	=29	=29	=29
4GG/	.	.	8B/L	.	4g/	.	2.ryy	2.ryy	2g\	-o	-o	2g\	-o	-o	2.ryy	2.ryy	2.ryy	2.ryy	2.ryy	2b\	4gg\
.	.	.	8d/	.	.	.	.	.	.	.	.	.	.	.	.	.	.	.	.	.	.
4G\	.	.	8B/	.	8g/L	.	.	.	.	.	.	.	.	.	.	.	.	.	.	.	8gg\L
.	.	.	8d/	.	8f#/	.	.	.	.	.	.	.	.	.	.	.	.	.	.	.	8ff#\
4G\	.	.	8B/	.	8g/	.	.	.	4g\	Pi-	Pi-	8g\L	Pi-	Pi-	.	.	.	.	.	4b\	8gg\
.	.	.	8d/J	.	8b/J	.	.	.	.	.	.	8b\J	.	.	.	.	.	.	.	.	8bb\J
!	!	!	!	!	!	!	!	!	!	!	!	!LO:LB:g=original	!	!	!	!	!	!	!	!	!
=30	=30	=30	=30	=30	=30	=30	=30	=30	=30	=30	=30	=30	=30	=30	=30	=30	=30	=30	=30	=30	=30
*	*	*	*tremolo	*	*	*	*	*	*	*	*	*	*	*	*	*	*	*	*	*	*
4D\	n7	.	8c/L	.	4a/	.	2.ryy	2.ryy	2.f#\	-la-	-la-	4a\	-la-	-la-	2.ryy	2.ryy	2.ryy	2.ryy	2.ryy	2dd\	4aa\
.	.	.	8d/	.	.	.	.	.	.	.	.	.	.	.	.	.	.	.	.	.	.
4D\	.	.	8c/	.	8a/L	.	.	.	.	.	.	8a\L	.	.	.	.	.	.	.	.	8aa\L
.	.	.	8d/	.	8g/	.	.	.	.	.	.	8g\	.	.	.	.	.	.	.	.	8gg\
4D\	.	.	8c/	.	8a/	.	.	.	.	.	.	8a\	.	.	.	.	.	.	.	4dd\	8aa\
.	.	.	8d/J	.	8b/J	.	.	.	.	.	.	8b\J	.	.	.	.	.	.	.	.	8bb\J
!	!	!	!	!	!LO:LB:g=original	!	!	!	!	!	!	!	!	!	!	!	!	!	!	!	!LO:LB:g=original
=31	=31	=31	=31	=31	=31	=31	=31	=31	=31	=31	=31	=31	=31	=31	=31	=31	=31	=31	=31	=31	=31
4GG/	.	.	8B/L	.	2g/	.	2.ryy	2.ryy	2g\	-to	-to	2g\	-to	-to	2.ryy	2.ryy	2.ryy	2.ryy	2.ryy	4b\	2gg\
.	.	.	8d/	.	.	.	.	.	.	.	.	.	.	.	.	.	.	.	.	.	.
8G\L	.	.	8B/	.	.	.	.	.	.	.	.	.	.	.	.	.	.	.	.	4r	.
8D\	.	.	8d/J	.	.	.	.	.	.	.	.	.	.	.	.	.	.	.	.	.	.
*	*	*	*Xtremolo	*	*	*	*	*	*	*	*	*	*	*	*	*	*	*	*	*	*
8BB\	.	.	4B/	.	4r	.	.	.	4r	.	.	4r	.	.	.	.	.	.	.	4r	4r
8GG\J	.	.	.	.	.	.	.	.	.	.	.	.	.	.	.	.	.	.	.	.	.
=32	=32	=32	=32	=32	=32	=32	=32	=32	=32	=32	=32	=32	=32	=32	=32	=32	=32	=32	=32	=32	=32
4D\	7 3_	.	4d 4A/	.	4f#/	.	2.ryy	2.ryy	2d\	paſ-	pas-	2f#/	paſ-	pas-	2.ryy	2.ryy	2.ryy	2.ryy	2.ryy	2.dd\	4ff#\
4D\	.	.	4d 4A/	.	8f#/L	.	.	.	.	.	.	.	.	.	.	.	.	.	.	.	8ff#\L
.	.	.	.	.	8e/	.	.	.	.	.	.	.	.	.	.	.	.	.	.	.	8ee\
4D\	.	.	4d 4A/	.	8f#/	.	.	.	4d\	-sus	-sus,	4f#/	-sus	-sus,	.	.	.	.	.	.	8ff#\
.	.	.	.	.	8d/J	.	.	.	.	.	.	.	.	.	.	.	.	.	.	.	8dd\J
=33	=33	=33	=33	=33	=33	=33	=33	=33	=33	=33	=33	=33	=33	=33	=33	=33	=33	=33	=33	=33	=33
*	*	*	*^	*	*	*	*	*	*	*	*	*	*	*	*	*	*	*	*	*	*
4G\	X	.	4d/	2.B/	.	4g/	.	2.ryy	2.ryy	2d\	et	et	2g/	et	et	2.ryy	2.ryy	2.ryy	2.ryy	2.ryy	2.dd\	4gg\
4G\	.	.	4d/	.	.	4.b\	.	.	.	.	.	.	.	.	.	.	.	.	.	.	.	4.bb\
4G\	.	.	4d/	.	.	.	.	.	.	4d\	Se-	se-	4g/	Se-	se-	.	.	.	.	.	.	.
.	.	.	.	.	.	8dd\	.	.	.	.	.	.	.	.	.	.	.	.	.	.	.	8ddd\
=34	=34	=34	=34	=34	=34	=34	=34	=34	=34	=34	=34	=34	=34	=34	=34	=34	=34	=34	=34	=34	=34	=34
.	.	.	.	.	.	.	.	.	.	.	.	.	.	.	.	.	.	.	.	.	.	8qddd/
4D\	7	.	4d/	2.A/	.	4cc\	.	2.ryy	2.ryy	2d\	-pul-	-pul-	2f#/	-pul-	-pul-	2.ryy	2.ryy	2.ryy	2.ryy	2.ryy	2.dd\	4ccc\
4D\	.	.	4d/	.	.	4a/	.	.	.	.	.	.	.	.	.	.	.	.	.	.	.	4aa\
4D\	.	.	4d/	.	.	8f#/L	.	.	.	4d\	-tus	-tus	4f#/	-tuſ	-tus	.	.	.	.	.	.	8ff#\L
.	.	.	.	.	.	8d/J	.	.	.	.	.	.	.	.	.	.	.	.	.	.	.	8dd\J
!	!	!	!	!	!	!	!	!	!	!LO:LB:g=original	!	!	!	!	!	!	!	!	!	!	!	!
=35	=35	=35	=35	=35	=35	=35	=35	=35	=35	=35	=35	=35	=35	=35	=35	=35	=35	=35	=35	=35	=35	=35
4G\	.	.	4d/	2.B/	.	8g/L	.	2.ryy	2.ryy	2d\	eſt	est,	4g\	est	est,	2.ryy	2.ryy	2.ryy	2.ryy	2.ryy	8b\L	8gg\L
.	.	.	.	.	.	8b/J	.	.	.	.	.	.	.	.	.	.	.	.	.	.	8dd\J	8bb\J
4G\	.	.	4d/	.	.	2g/	.	.	.	.	.	.	4r	.	.	.	.	.	.	.	2b\	2gg\
4G\	.	.	4d/	.	.	.	.	.	.	4r	.	.	4r	.	.	.	.	.	.	.	.	.
*	*	*	*v	*v	*	*	*	*	*	*	*	*	*	*	*	*	*	*	*	*	*	*
=36	=36	=36	=36	=36	=36	=36	=36	=36	=36	=36	=36	=36	=36	=36	=36	=36	=36	=36	=36	=36	=36
.	.	.	.	.	8qg/	.	.	.	.	.	.	.	.	.	.	.	.	.	.	.	8qgg/
*	*	*	*	*	*	*	*	*	*	*	*	*	*ij	*ij	*	*	*	*	*	*	*
!	!	!	!LO:TX:t=P:problem:t.36-39 zapisane repetycją	!	!	!	!	!	!	!	!	!	!	!	!	!	!	!	!	!	!
!	!	!	!LO:SIC:s=4d 4A/	!	!	!	!	!	!	!	!	!	!	!	!	!	!	!	!	!	!
4D\	7	.	4dyy 4A/yy	.	4f#/	.	2.ryy	2.ryy	2d\	paſ-	pas-	2f#/	paſ-	pas-	2.ryy	2.ryy	2.ryy	2.ryy	2.ryy	2.dd\	4ff#\
!	!	!	!LO:SIC:s=4d 4A/	!	!	!	!	!	!	!	!	!	!	!	!	!	!	!	!	!	!
4D\	.	.	4dyy 4A/yy	.	8f#/L	.	.	.	.	.	.	.	.	.	.	.	.	.	.	.	8ff#\L
.	.	.	.	.	8e/	.	.	.	.	.	.	.	.	.	.	.	.	.	.	.	8ee\
!	!	!	!LO:SIC:s=4d 4A/	!	!	!	!	!	!	!	!	!	!	!	!	!	!	!	!	!	!
4D\	.	.	4dyy 4A/yy	.	8f#/	.	.	.	4d\	-sus	-sus	4f#/	-sus	-sus	.	.	.	.	.	.	8ff#\
.	.	.	.	.	8d/J	.	.	.	.	.	.	.	.	.	.	.	.	.	.	.	8dd\J
!	!	!	!	!	!	!	!	!	!	!	!	!	!	!	!	!	!	!	!	!LO:LB:g=original	!
=37	=37	=37	=37	=37	=37	=37	=37	=37	=37	=37	=37	=37	=37	=37	=37	=37	=37	=37	=37	=37	=37
*	*	*	*^	*	*	*	*	*	*	*	*	*	*	*	*	*	*	*	*	*	*
!	!	!	!LO:SIC:s=4d/	!LO:SIC:s=2.B/	!	!	!	!	!	!	!	!	!	!	!	!	!	!	!	!	!	!
4G\	.	.	4d/yy	2.B/yy	.	4g/	.	2.ryy	2.ryy	2d\	et	et	2g\	et	et	2.ryy	2.ryy	2.ryy	2.ryy	2.ryy	2.dd\	4gg\
!	!	!	!LO:SIC:s=4d/	!	!	!	!	!	!	!	!	!	!	!	!	!	!	!	!	!	!	!
4G\	.	.	4d/yy	.	.	4.b\	.	.	.	.	.	.	.	.	.	.	.	.	.	.	.	4.bb\
!	!	!	!LO:SIC:s=4d/	!	!	!	!	!	!	!	!	!	!	!	!	!	!	!	!	!	!	!
4G\	.	.	4d/yy	.	.	.	.	.	.	4d\	se-	se-	4g\	Se-	se-	.	.	.	.	.	.	.
.	.	.	.	.	.	8dd\	.	.	.	.	.	.	.	.	.	.	.	.	.	.	.	8ddd\
=38	=38	=38	=38	=38	=38	=38	=38	=38	=38	=38	=38	=38	=38	=38	=38	=38	=38	=38	=38	=38	=38	=38
.	.	.	.	.	.	8qdd/	.	.	.	.	.	.	.	.	.	.	.	.	.	.	.	8qddd/
!	!	!	!LO:SIC:s=4d/	!LO:SIC:s=2.A/	!	!	!	!	!	!	!	!	!	!	!	!	!	!	!	!	!	!
4D\	.	.	4d/yy	2.A/yy	.	4cc\	.	2.ryy	2.ryy	2d\	-pul-	-pul-	2f#/	-pul-	-pul-	2.ryy	2.ryy	2.ryy	2.ryy	2.ryy	2.dd\	4ccc\
!	!	!	!LO:SIC:s=4d/	!	!	!	!	!	!	!	!	!	!	!	!	!	!	!	!	!	!	!
4D\	.	.	4d/yy	.	.	4a/	.	.	.	.	.	.	.	.	.	.	.	.	.	.	.	4aa\
!	!	!	!LO:SIC:s=4d/	!	!	!	!	!	!	!	!	!	!	!	!	!	!	!	!	!	!	!
4D\	.	.	4d/yy	.	.	8f#/L	.	.	.	4d\	-tus	-tus	4f#/	-tuſ	-tus	.	.	.	.	.	.	8ff#\L
.	.	.	.	.	.	8d/J	.	.	.	.	.	.	.	.	.	.	.	.	.	.	.	8dd\J
=39	=39	=39	=39	=39	=39	=39	=39	=39	=39	=39	=39	=39	=39	=39	=39	=39	=39	=39	=39	=39	=39	=39
!	!	!	!LO:SIC:s=4d/	!LO:SIC:s=2.B/	!	!	!	!	!	!	!	!	!	!	!	!	!	!	!	!	!	!
4G\	.	.	4d/yy	2.B/yy	.	2g/	.	2.ryy	2.ryy	2d\	eſt	est,	2g/	eſt	est,	2.ryy	2.ryy	2.ryy	2.ryy	2.ryy	2b\	2gg\
!	!	!	!LO:SIC:s=4d/	!	!	!	!	!	!	!	!	!	!	!	!	!	!	!	!	!	!	!
4GG/	.	.	4d/yy	.	.	.	.	.	.	.	.	.	.	.	.	.	.	.	.	.	.	.
*	*	*	*	*	*	*	*	*	*	*	*	*	*	*Xij	*Xij	*	*	*	*	*	*	*
!	!	!	!LO:SIC:s=4d/	!	!	!	!	!	!	!	!	!	!	!	!	!	!	!	!	!	!	!
4D\	.	.	4d/yy	.	.	8f#/L	.	.	.	4d\	ſe-	se-	4f#/	Se-	se-	.	.	.	.	.	4dd\	8ff#\L
.	.	.	.	.	.	8d/J	.	.	.	.	.	.	.	.	.	.	.	.	.	.	.	8dd\J
*	*	*	*v	*v	*	*	*	*	*	*	*	*	*	*	*	*	*	*	*	*	*	*
=40	=40	=40	=40	=40	=40	=40	=40	=40	=40	=40	=40	=40	=40	=40	=40	=40	=40	=40	=40	=40	=40
4G\	.	.	4d 4G/	.	4g/	.	2.ryy	2.ryy	2d\	-pul-	-pul-	2g/	-pul-	-pul-	2.ryy	2.ryy	2.ryy	2.ryy	2.ryy	2b\	2gg\
4GG/	.	.	4d 4G/	.	4g/	.	.	.	.	.	.	.	.	.	.	.	.	.	.	.	.
4D\	.	.	4d 4G/	.	8f#/L	.	.	.	4d\	-tus	-tus	4f#/	-tus	-tus	.	.	.	.	.	4dd\	8ff#\L
.	.	.	.	.	8d/J	.	.	.	.	.	.	.	.	.	.	.	.	.	.	.	8dd\J
!LO:LB:g=original	!	!	!	!	!	!	!	!	!	!	!	!	!	!	!	!	!	!	!	!	!
=41	=41	=41	=41	=41	=41	=41	=41	=41	=41	=41	=41	=41	=41	=41	=41	=41	=41	=41	=41	=41	=41
!	!	!	!	!	!	!	!	!	!	!	!	!LO:MO:mod=2g/	!	!	!	!	!	!	!	!	!
4GG/	.	.	4d 4G/	.	4g/	.	2.ryy	2.ryy	2B/	eſt	est.	4g\	eſt	est.	2.ryy	2.ryy	2.ryy	2.ryy	2.ryy	4b\	4gg\
!	!	!	!	!	!	!	!	!	!	!	!	!LO:MO:mod=.	!	!	!	!	!	!	!	!	!
4G\	.	.	4d 4G/	.	4g/	.	.	.	.	.	.	4r	.	.	.	.	.	.	.	4r	4r
4r	.	.	4r	.	4r	.	.	.	4r	.	.	4r	.	.	.	.	.	.	.	4r	4r
==	==	==	==	==	==	==	==	==	==	==	==	==	==	==	==	==	==	==	==	==	==
*-	*-	*-	*-	*-	*-	*-	*-	*-	*-	*-	*-	*-	*-	*-	*-	*-	*-	*-	*-	*-	*-
!!!system-decoration: [(g1)][(g2)][(g3)][(g4)]g5
!!!RDF**kern: > = above
!!!RDF**kern: < = below
!!!RDF**kern: | = vertical stroke
!!!RDF**kern: i = editorial accidental
!!!RDF**kern: l = terminal long
!!!filter-modern: sic -sq | shed -e "s/LO:DY:(a|b|rj)/LO:dy:$1/L" | autostem -r | tie -s | shed -k -e "s/([\(\)\[\]])[><]/$1/g" | shed -e "s/^custos:/Xcustos:/I" | shed -k -e "s/:TUP:/:tup:/L" | shed -e "s/N:vis=/N:VIS=/L" | shed -e "s/TX(.*):t=P:/tx$1:t=P:/LG" | shed -e "s/^(\d+[\/\\]right)/$1yy/I; s/^(\d+[\/\\]left)/$1yy/I" | modori -m
!!!ENC: Berenika Jozajtis
!!!END: 2020-09-27
!!!EED: Wojciech Jakubiak-Danek
!!!EEV: 2022-02-20
!!!ENC-modern: Katarzyna Serwa
!!!END-modern: 2022-12-07
